X: 6
T: Irish Girl, The
Z: Daniel Parker
S: https://thesession.org/tunes/844#setting30834
R: reel
M: 4/4
L: 1/8
K: Dmaj
A3G||:FD (3FED DFAF|ED (3CB,A, A,CEG|FD (3FED DFAg|fgec dBAG|
FD(3FED DFAF|ED(3CB,A, A,CEG|FD(3FED DFAg|[1fgec d2AG:|[2fgec d2de||
|:fdd/d/d fdaf|ed(3cBA Aceg|fdd/d/d dfag|fgec dfag|
fdd/d/d fdaf|ed(3cBA Aceg|fedf {a}gfec|[1dfec dfag:|[2dfec dBAG||
